X: 1
T:Kas a barh
C:Gwenva
M:4/4
L:1/8
K:C
A2BA G2E2|ABcA B2B2|\
A2BA G2E2|ABcA B4:|\
|:A2AA A2G2|
A2GF E4|A2A2 G2 E2|\
ABcA B2c2|EFGE A2c2|BABG A4:|
